X:3
T:3. Away, Thou Shalt Not Love Me
C:John Wilbye
%#Noindex
%%score [1 2 3]
%%transpose 5
L:1/4
M:4/4
I:linebreak $
K:C
V:1 treble nm="Treble I"
%%MIDI program 73
V:2 treble nm="Treble II"
%%MIDI program 73
V:3 bass nm="Bass" octave=-1
%%MIDI program 73
V:1
 d2 d/c/B/A/ | G2 z g |$ g/f/e/d/ c B | e e e2 | d d d/c/B/A/ |$ G2 z g | g/f/e/d/ c3/2 B/ | %7
w: A- way, a- way, a-|way; a-|way, a- way, a- way, thou|shalt not love|me, a- way, a- way, a-|way, a-|way, a- way, a- way, thou|
 A G G2- |$ G ^F/E/ F2 | G d3/2 d/ c | B B A2 | G G A3/2 B/ |$ c2 G2 | G4 | G4 | z d3/2 d/ c |$ %16
w: shalt not love|____|me._ shall my|love seem great-|er, so shall my|love seem|great-|er,|so shall my|
 B B A2 | G G A3/2 B/ | c G G2 | G2 z2 |$ z d3/2 d/ ^c | d f e2 | d d3/2 d/ B | ^c d2 c | %24
w: love seem great-|er, so shall my|love seem great-|er,|and I shall|love the bet-|ter, and I shall|love the bet-|
 d d3/2 c/ B |$ A2 z G- | G/G/ ^F G B | A2 B B | c2 B2 |$ z G G ^F | G d c3/2 B/ | A B A2 | %32
w: ter._ It be|so? shall|_ it be so, what|say you? what|say you?|Why speak you|not, why speak you|not, I pray|
 B2 z2 |$ g g2 ^f | g e d2 | B c d2 | e2 d d- |$ d ^c d B | A2 B G | A2 G g | f2 e2 |$ d B A2 | %42
w: you?|Nay then I|know you love|me, you love|me, nay then|_ I know you|love me, you|love me, That|so you|may dis- prove|
 B2 d d- | d ^c d2- | d c A2 |$ G2 z2 | A A2 ^G | A2 A/G/ G- | G ^F G B |$ c d e c | %50
w: me, nay then|_ I know|_ you love|me,|nay then I|know you_ love|__ me, that|so you may dis-|
 A B/B/ c3/2 B/ | A G2 ^F | G4- | G4 |] %54
w: prove me, that so you|may dis- prove|me.|_|
V:2
 z z2 d | d/c/B/A/ G2 |$ z g g/f/e/d/ | c3/2 B/ A G | ^F2 D d |$ d/c/B/A/ G2 | z g g/f/e/d/ | %7
w: A-|way, a- way, a- way;|a- way, a- way, a-|way, thou shalt not|love me, a-|way, a- way, a- way,|a- way, a- way, a-|
 c3/2 c/ B c |$ d4 | B2 z2 | z4 | z g3/2 g/ f |$ e e d2 | c c3/2 c/ B | c e3/2 d/ c | %15
w: way, thou shalt not|love|me.||So shall my|love seem great-|er, _ I shall|love,_ I shall|
 B A ^F/G/A/F/ |$ G2 z2 | z g3/2 g/ f | e e d2 | c c3/2 c/ B |$ A A G2 | ^F A3/2 A/ E | %22
w: love the bet- ---|ter,|So shall my|love seem great-|er, and I shall|love the bet-|ter, and I shall|
 ^F F G3/2 =F/ | E F E2 | ^F2 z2 |$ z d3/2 c/ B | A2 z G- | G/G/ ^F G d | e2 d d |$ d ^c d2- | %30
w: love, and I shall|love the bet-|ter.|Shall it be|so? Shall|_ it be so, what|say you? Why|speak you not,|
 d G G A | ^F G G F | z2 d d- |$ d ^c d2- | d c/B/ A2 | G2 z2 | A A2 ^G |$ A2 A/G/ G- | G ^F G B | %39
w: _ why speak you|not, I pray you?|Nay then|_ I know|_ you_ love|me,|nay then I|know you_ love|__ me, That|
 c d e c | A B/B/ c>B |$ A G2 ^F | G2 z2 | g g2 ^f | g e d2 |$ B c d2 | e2 d d- | d ^c d B | %48
w: so you may dis-|prove me, that so  you|may dis- prove|me.|Nay then I|know you love|me, you love|me, nay then|_ I know you|
 A2 B G |$ A2 G g | f2 e2 | d B A2 | B4- | B4 |] %54
w: love me, you|love me, that|so you|may dis- prove|me.|_|
V:3
 z4 | z G G/F/E/D/ |$ C3 G, | C2 C2 | D2 D2 |$ z G G/F/E/D/ | C3 G, | C2 E2 |$ D4 | G,2 z2 | %10
w: |A- way, a- way, a-|way, thou|shalt not|love me,|a- way, a- way, a-|way, thou|shalt not|love|me.|
 z G3/2 G/ F | E E D2 |$ C C3/2 C/ B, | C2 G2 | C4 | D4 |$ z G3/2 G/ F | E E D2 | C C3/2 C/ B, | %19
w: So shall my|love seem great-|er, And I shall|love the|bet-|er,|so shall my|love seem great-|er, and I shall|
 C C G2 |$ F D E E | D D3/2 D/ ^C | D2 G,2 | A,4 | D2 z G |$ D D G, G, | D2 G, G | D D G, G, | %28
w: love the bet-|ter, and I shall|love, and I shall|love the|bet-|ter. Shall|it be so? what|say you? shall|it be so? what|
 C2 G, G |$ E2 D2 | B,2 C2 | D2 D2 | G G2 ^F |$ G E D2 | B, C D2 | E2 D D- | D ^C D B, |$ %37
w: say you? Why|speak you|not, I|pray you?|Nay then I|know you love|me, you love|me, nay then|_ I know you|
 A,2 B, G, | D2 G, G | F2 E2 | D2 C2 |$ D4 | G, G G ^F | G E D2 | B, C D2 |$ E2 D D- | D ^C D B, | %47
w: love me, you|love me, That|so you|may dis-|prove|me, nay then I|know you love|me, you love|me, nay then|_ I know you|
 A,2 B, G, | D2 G, G |$ F2 E2 | D2 C2 | D4 | G,4- | G,4 |] %54
w: love me, you|love me, that|so you|may dis-|prove|me.|_|

